X:39
T:City Of Savannah
M:4/4
L:1/8
R:hornpipe
D:Stony Steps by Matt Molloy
D:Joe Derrane in "The Tie That Binds"
K:Dmaj
FG|(3ABA FA df af | ga ba gf ed |
cd ed (3cec Bc | AB GA (3FAF G^G |
(3ABA GA df af | ga ba gf ed |
cb ag (3fef Bc | (3dcd fe d2 :|
|:cd|(3efe ce ae c'e | be ^ge ae be |
(3efe ce ae c'e | be ^ge a2 f=g |
(3aba ga ea ca | (3aba fa da Aa |
(3gag Bg (3fgf Af | eA Bc d2:|
dB|AD FA df af|ga ba gf ed|cd ed cd Bd|~A2 ^GA =GA FG|
~A2 FA df af|gz ba gf ed|cd Bd AF GE|FA Ec d2:|f2|:
e2 ce ae c'e|be ^ge ae c'e|fe ce ac' ea|^gb e^g a2 ba|
~a3 ^ga =ge c'a|~a2 ge fd az|(3gag ~A2 (3faf ~A2|(3eae (3ABc d2:|
